X:79
T:Leaving Lismore
C:Gaelic Song
M:3/4
K:D
L:1/8
V: 1 name="Vln I" snm="" clef=treble
%%MIDI gchordoff
%%MIDI channel 1
%%MIDI program 40
"D" D3 E F2 | (A4 d2) | "G" B3 A F2 | "D" A6 | D3 E F2 | "Bm" (A4 d2) | "G" B3 A F2 | "A" E6 |
"D" D3 E F2 | (A4 d2) | "G" B3 A F2 | "D" A6 | A3 B d2 | "F#m" (F4 E2) | F/E/(D D4) | "D" D6 ||
"Bm" d3 c d2 | "G" (B4 d2) | B3 A F2 | "D" A6 | "Bm" d3 c d2 | "G" (B4 d2) | B3 A F2 | "A" E6 |
"D" D3 E F2 | (A4 d2) | "G" B3 A F2 | "D" A6 | A3 B d2 | "F#m" (F4 E2) | F/E/(D D4) | "D" D6 ||
V: 2 name="Vln II" snm="" clef=treble
%%MIDI channel 2
%%MIDI program 40
A,4 D2 | F4 F2 | G3 F D2 | F6 | A,4 D2 | F4 F2 | G3 F D2 | A,6 |
A,4 D2 | F4 F2 | G3 F D2 | F6 | F3 G B2 | A,3 B, C2 | D6 | D6 ||
B3 A B2 | G4 B2 | G3 F D2 | F6 | B3 A B2 | G4 B2 | G3 F D2 | C2 B,2 A,2 |
A,4 D2 | F4 F2 | G3 F D2 | F4 E2 | F3 G A2 | A,3 B, C2 | D2 A2 F2 | D6 ||

